X:121
T:Tim Guiheen's Polka
B:Terry "Cuz" Teahan "Sliabh Luachra on Parade" 1980
Z:Patrick Cavanagh
M:2/4
L:1/8
R:Polka
K:D
| E>F GA | Be ed | Bc/B/ AF | EF D2 | 
E>F GA | Be ed | Bc/B/ AF | FE E2 :| 
| e2 ef | g2 fe | d2 de | fa df | 
e2 ef | g2 fe | dB AF | FE E2 :|| 

